X:1
T:Title
%%score { ( 1 2 ) | ( 3 4 ) }
L:1/8
Q:1/4=100
M:4/4
K:Bb
V:1 treble nm="Midi_20"
V:2 treble 
V:3 bass 
V:4 bass 
V:1
"^John Stainer\n(1840-1901)""^Jejunia (77. 77)""^Henry Williams Baker\n(1821-77)" F3 G A2 B2 | %1
 c2 G2 F4 | F2 B2 A2 F2 | A2 G2"^Good it is to keep the fast" F4 | G3 A =B2 c2 | d2 F2 E4 | %6
 e2 d2 c2 G2 | B3 A B4 |] %8
V:2
 F2 E2 F2 F2 | E2 E2 F4 | D2 D2 C2 D2 | C2 =E2 F4 | D2 G2 F2 E2 | D2 =B,2 C4 | E2 F2 E2 E2 | %7
 F3 E D4 |] %8
V:3
"^1. Good it is to keep the fast,\nShadowed forth in ages past,\nWhich our own Almighty Lord\nHallowed by His deed and Word.\n\n2. Moses, while he fasted, saw\nGod Who gave by him the law;\nTo Elijah angels came,\nSteeds of fire and car of flame.\n\n3. So was Daniel meet to gaze\nOn the sight of latter days\nAnd the Baptist to proclaim\nBlessings through the Bridegrooms Name." D2"^Lyrics: Gregory I (Clarum decus jejunii) translated from Latin to English by Henry W. Baker ," D2 C2 B,2 | %1
 A,2 B,2 C4 | F,2 F,2 F,2 F,2 | F,2 B,2 A,4 | %4
"^4. Grant us, Lord, like them to be\nOft in prayer and fast with Thee;\nFill us with Thy heavenly might,\nBe our Joy and true Delight.\n\n5. Father, hear us through Thy Son,\nAnd the Spirit, with Thee One,\nWhom our thankful hearts adore,\nEver and forevermore.\n" =B,2 C2 D2 G,2 | %5
 G,2 G,2 G,4 | G,2 F,2 G,2 B,2 | D2 C2"^1875." B,4 |] %8
V:4
 B,,2 B,,2 E,2 D,2 | C,2 B,,2 A,,4 | B,,2 G,,2 A,,2 B,,2 | C,2 C,2 F,4 | F,2 E,2 D,2 C,2 | %5
 =B,,2 G,,2 C,4 | C,2 D,2 E,2 G,2 | F,2 F,2 B,,4 |] %8

